picto/bistro-framed.svg

<svg class="color-immutable" width="30" height="30" viewBox="0 0 30 30" fill="none" xmlns="http://www.w3.org/2000/svg"><path d="M29.9999 0H0V29.9999H29.9999V0Z" fill="#2D327D"/><path d="M25.4999 2.99999C26.3249 2.99999 26.9999 3.67499 26.9999 4.49999V25.4999C26.9999 26.3249 26.3249 26.9999 25.4999 26.9999H4.49999C3.67499 26.9999 2.99999 26.3249 2.99999 25.4999V4.49999C2.99999 3.67499 3.67499 2.99999 4.49999 2.99999H25.4999ZM25.4999 2.62499H4.49999C3.46612 2.62499 2.62499 3.46612 2.62499 4.49999V25.4999C2.62499 26.5338 3.46612 27.3749 4.49999 27.3749H25.4999C26.5338 27.3749 27.3749 26.5338 27.3749 25.4999V4.49999C27.3749 3.46612 26.5338 2.62499 25.4999 2.62499Z" fill="white"/><path d="M13.5 23.2498C13.5 23.6637 13.836 23.9996 14.25 23.9996H23.25C23.664 23.9996 24 23.6637 24 23.2498V22.8748H13.5V23.2498H13.5Z" fill="white"/><path d="M21.7501 14.9996H16.1251C15.918 14.9996 15.7501 15.1678 15.7501 15.3748V21.3749C15.7501 21.7888 16.0862 22.1247 16.5 22.1247H21.0002C21.4141 22.1247 21.7501 21.7888 21.7501 21.3749V19.4995C22.9922 19.4995 24.0001 18.4918 24.0001 17.2495C24.0001 16.0078 22.9921 14.9996 21.7501 14.9996ZM21.7554 18.7497C21.7536 18.7497 21.7519 18.7497 21.7501 18.7497V15.7497C21.7519 15.7497 21.7536 15.7497 21.7554 15.7497C22.5833 15.7497 23.2554 16.4218 23.2554 17.2496C23.2554 18.0777 22.5833 18.7497 21.7554 18.7497Z" fill="white"/><path d="M12.375 10.4996H6.37503C6.16796 10.4996 6.00011 10.6678 6.00011 10.8748V14.9996C6.00011 16.5845 7.23108 17.8965 8.8126 17.9976V22.8748H6.37503C6.16796 22.8748 6.00011 23.0427 6.00011 23.2497V23.6247C6.00011 23.8317 6.16796 23.9996 6.37503 23.9996H12.3751C12.5821 23.9996 12.75 23.8317 12.75 23.6247V23.2497C12.75 23.0427 12.5821 22.8748 12.3751 22.8748H9.93745V17.9976C11.519 17.8965 12.7499 16.5845 12.7499 14.9996V10.8748C12.7499 10.6678 12.582 10.4996 12.375 10.4996Z" fill="white"/></svg>

<svg class="color-immutable" width="30" height="30" viewBox="0 0 30 30" fill="none" xmlns="http://www.w3.org/2000/svg"><path d="M30 0H0v30h30V0Z" fill="#2D327D"/><path d="M25.5 3c.825 0 1.5.675 1.5 1.5v21c0 .825-.675 1.5-1.5 1.5h-21c-.825 0-1.5-.675-1.5-1.5v-21C3 3.675 3.675 3 4.5 3h21Zm0-.375h-21A1.877 1.877 0 0 0 2.625 4.5v21c0 1.034.841 1.875 1.875 1.875h21a1.877 1.877 0 0 0 1.875-1.875v-21A1.877 1.877 0 0 0 25.5 2.625Z" fill="#fff"/><path d="M13.5 23.25c0 .414.336.75.75.75h9a.75.75 0 0 0 .75-.75v-.375H13.5v.375ZM21.75 15h-5.625a.375.375 0 0 0-.375.375v6c0 .414.336.75.75.75H21a.75.75 0 0 0 .75-.75V19.5a2.25 2.25 0 0 0 0-4.5Zm.005 3.75h-.005v-3h.005a1.5 1.5 0 0 1 0 3ZM12.375 10.5h-6a.375.375 0 0 0-.375.375V15a3.004 3.004 0 0 0 2.813 2.998v4.877H6.375A.375.375 0 0 0 6 23.25v.375c0 .207.168.375.375.375h6a.375.375 0 0 0 .375-.375v-.375a.375.375 0 0 0-.375-.375H9.937v-4.877A3.004 3.004 0 0 0 12.75 15v-4.125a.375.375 0 0 0-.375-.375Z" fill="#fff"/></svg>
